X: 37102
T: Silver Wings Polka
R: barndance
M: 4/4
K: Fmajor
|:c|a/>a/a/>a/ fA ed c2|
a>aa>a f2 A2|e2 d2 c4|F>FE>F A2 c2|e2 d2 B4|
e>ee>e d2 d2|e2 e2 f4|g>fe>f g>ag>f|e2 c2 d2 e2|
a>aa>a f2 A2|e2 d2 c4|F>FE>F A2 c2|d6 f2|
e>gd>f e2 e2|e>gd>f e2 e2|e>c=B>c d2 e2|1 f2 c2 f2:|2 f2 c2 f4:|
|:c4- c>d=B>d|c4- c>d=B>d|c2 d2 e2 f2|f2 e2 e4|
B4- B>AG>A|B4- B>AG>A|B2 c2 d2 e2|e2 A2 A4|
c4- c>d=B>d|c4- c>d=B>d|c2 d2 e2 f2|a2 g2 d4|
g>fd>f e2 e2|G>FD>F E2 E2|e>c=B>c d2 e2|f2 c2 f4:|
|:a>fe>g f2 f2|a>fe>g f2 f2|a>fe>f b2 g2|d8|
g>fe>f e2 e2|g>fe>f e2 e2|e>c=B>c d2 c2|F2 c2 d2 e2|
a>fe>g f2 f2|a>fe>g f2 f2|a>fe>f b2 g2|d8|
g>fe>f e2 e2|g>fe>f e2 e2|e>c=B>c c2 d2|f2 c2 f4:|

